.local/share/icons/Gruvbox-Plus-Dark/actions/16/tools.svg

<svg width="16" height="16" version="1.1" xmlns="http://www.w3.org/2000/svg">
  <defs>
    <style id="current-color-scheme" type="text/css">.ColorScheme-Text { color:#ebdbb2; } .ColorScheme-Highlight { color:#458588; }</style>
  </defs>
  <path class="ColorScheme-Text" d="m5 1a1 1 0 0 0-1 1v2h-1c-1.108 0-2 0.892-2 2v1h14v-1c0-1.108-0.892-2-2-2h-1v-2a1 1 0 0 0-1-1h-6zm1 2h4v1h-4v-1zm-5 5v5c0 1.108 0.892 2 2 2h10c1.108 0 2-0.892 2-2v-5h-5v4h-4v-4h-5zm6 1v2h2v-2h-2z" fill="currentColor"/>
</svg>

<svg xmlns="http://www.w3.org/2000/svg" width="16" height="16" version="1.1">
 <defs>
  <style id="current-color-scheme" type="text/css">
   .ColorScheme-Text { color:#555555; } .ColorScheme-Highlight { color:#4285f4; } .ColorScheme-NeutralText { color:#ff9800; } .ColorScheme-PositiveText { color:#4caf50; } .ColorScheme-NegativeText { color:#f44336; }
  </style>
 </defs>
 <path style="fill:currentColor" class="ColorScheme-Text" d="M 5 1 A 1.0001 1.0001 0 0 0 4 2 L 4 4 L 3 4 C 1.892 4 1 4.892 1 6 L 1 7 L 15 7 L 15 6 C 15 4.892 14.108 4 13 4 L 12 4 L 12 2 A 1.0001 1.0001 0 0 0 11 1 L 5 1 z M 6 3 L 10 3 L 10 4 L 6 4 L 6 3 z M 1 8 L 1 13 C 1 14.108 1.892 15 3 15 L 13 15 C 14.108 15 15 14.108 15 13 L 15 8 L 10 8 L 10 12 L 6 12 L 6 8 L 1 8 z M 7 9 L 7 11 L 9 11 L 9 9 L 7 9 z"/>
</svg>
